X:1
T:Title
%%score { ( 1 3 ) | ( 2 4 ) }
L:1/8
M:4/4
K:Eb
V:1 treble nm="Grand Piano"
V:3 treble 
V:2 bass 
V:4 bass 
V:1
 z4 z2[Q:1/4=100] EF | GG G>G G2 [DF]>E | B6 z2 | %3
 [A,DF][A,DF] [A,DF]>[A,DF] [A,DF]2 [B,EG]>[A,DF] | E6 z2 | cc c>c c2 Ac | %6
 [GB][GB] [GB]>[GB] [GB]2 E[EF] | [EG][EG] [EG]>[EG] [EG]2 [DF]>[DG] |[M:3/4] E6 |[M:1/4] B>e | %10
[M:4/4] d6 z2 | B6 z2 |[M:3/4] [DGB][DFA] [DFA]>[D=EG] [DFA]2 |[M:1/4] [B,GB]>[Ac] | %14
[M:4/4] z2 C>C B,2 B>e | d6 z2 |[M:3/4] B6 |[M:1/4] E[EF] | %18
[M:4/4] [EG][EG] [EG]>[EG] [EG]2 [DF]>[DG] |[M:3/4] E6 |] %20
V:2
 z4 z2 [E,G,][E,A,E] | [E,B,E][E,B,E] [E,B,E]>[E,B,E] [E,B,E]2 [B,,A,]>[B,,G,] | [G,E]2 z2 z4 | %3
 B,,B,, B,,>B,, B,,2 B,,>B,, | z2 A,>A, G,2 [E,G,E][E,G,E] | %5
 [A,E][A,E] [A,E]>[A,E] [A,E]2 [A,CE][A,EA] | [E,E][E,E] [E,E]>[E,E] [E,E]2 [E,G,][C,A,] | %7
 [B,,B,][B,,B,] [B,,B,]>[B,,B,] [B,,B,]2 [B,,A,]>[B,,B,] |[M:3/4] G,2 A,>A, G,2 | %9
[M:1/4][K:treble] G>G |[M:4/4] A6[K:bass][K:treble] z2 | G6[K:bass] z2 | %12
[M:3/4] B,,B,, B,,>B,, B,,2 |[M:1/4] B,,>[D,B,] |[M:4/4] [E,B,]2 E,>E, E,2[K:treble] G>G | %15
 A6[K:bass][K:treble] z2 |[M:3/4] G6[K:bass] |[M:1/4] [E,G,][C,A,] | %18
[M:4/4] [B,,B,][B,,B,] [B,,B,]>[B,,B,] [B,,B,]2 [B,,A,]>[B,,B,] | %19
[M:3/4] E,2- [E,-A,]>[E,-A,] [E,G,]2 |] %20
V:3
 x8 | x8 | z2 F>F G2 [B,FA][B,EG] | x8 | G,2 C>C B,2 B=B | x8 | x8 | x8 |[M:3/4] z2 C>C B,2 | %9
[M:1/4] x2 |[M:4/4] z2 B,>B, B,2 c>e | z2 E>E E2 [EAc][EGB] |[M:3/4] x6 |[M:1/4] x2 | %14
[M:4/4] [EG]6 z2 | z2 B,>B, B,2 c>e |[M:3/4] z2 E>E E2 |[M:1/4] x2 |[M:4/4] x8 | %19
[M:3/4] z2 C>C B,2 |] %20
V:4
 x8 | x8 | E,2- [E,-A,]>[E,-A,] [E,B,]2 D,E, | x8 | E,6 z2 | x8 | x8 | x8 |[M:3/4] E,6 | %9
[M:1/4][K:treble] x2 |[M:4/4] z2[K:bass] F,>F, F,2[K:treble] A>c | z2[K:bass] E,>E, E,2 E,E, | %12
[M:3/4] x6 |[M:1/4] x2 |[M:4/4] x6[K:treble] x2 | z2[K:bass] F,>F, F,2[K:treble] A>c | %16
[M:3/4] z2[K:bass] E,>E, E,2 |[M:1/4] x2 |[M:4/4] x8 |[M:3/4] G,2 z2 z2 |] %20

